packages/match-logos/mono/svg/datalot.svg

<svg fill="none" height="24" viewBox="0 0 136 24" width="136" xmlns="http://www.w3.org/2000/svg" xmlns:xlink="http://www.w3.org/1999/xlink"><clipPath id="a"><path d="m0 0h135.6v24h-135.6z"/></clipPath><g clip-path="url(#a)"><path d="m40.4058 2.3856h-9.894v19.83h9.894c7.128 0 10.692-2.2164 10.692-10.2378 0-7.1922-3.564-9.5922-10.692-9.5922zm-.6378 16.1592h-5.0268v-12.489h5.0268c4.734 0 7.101 1.176 7.101 5.922 0 5.574-2.367 6.567-7.101 6.567zm19.629-13.086c-1.83 0-3.6492.267-5.4576.7992v3.351c1.7707-.52648 3.6079-.79523 5.4552-.798 2.904 0 4.356.75 4.356 2.25v1.1016c-1.1382-.21-2.436-.318-3.894-.318-4.8504 0-7.2762 1.7196-7.2762 5.154 0 3.48 2.2608 5.22 6.7824 5.22 1.65 0 3.2022-.393 4.6596-1.182l1.8192 1.182h2.1372v-11.2386c0-3.6798-2.862-5.52-8.586-5.52zm4.356 12.096c-1.2018.873-2.664 1.3092-4.3878 1.3092-1.7022 0-2.553-.6384-2.553-1.9152s1.0158-1.914 3.048-1.914c1.5318 0 2.8296.1062 3.894.318v2.202zm10.6788-12.096h3.8928v3.3522h-3.4284v7.707c0 1.5642.6762 2.346 2.0268 2.346h1.404v3.3516h-3.447c-2.808 0-4.212-1.506-4.212-4.5168v-14.952h3.126l.6384 2.712zm11.7936 0c-1.83 0-3.6516.267-5.46.7992v3.351c1.7714-.52662 3.6095-.79538 5.4576-.798 2.904 0 4.356.75 4.356 2.25v1.1016c-1.1388-.21-2.436-.318-3.894-.318-4.8516 0-7.278 1.7196-7.278 5.154 0 3.48 2.262 5.22 6.7836 5.22 1.628.0055 3.231-.4012 4.6596-1.182l1.818 1.182h2.1384v-11.2386c0-3.6798-2.862-5.52-8.5848-5.52zm4.356 12.096c-1.2042.873-2.6676 1.3092-4.3902 1.3092-1.7028 0-2.5536-.6384-2.5536-1.9152s1.0152-1.914 3.048-1.914c1.5318 0 2.829.1062 3.894.318v2.202zm6.9084-14.8428h4.2302v19.5948h-4.2302zm14.3322 2.5872c-5.638 0-8.458 2.847-8.458 8.538.022 5.6808 2.841 8.5212 8.459 8.5212 5.638 0 8.458-2.8404 8.458-8.5218 0-5.688-2.82-8.535-8.458-8.535zm0 13.7238c-2.82 0-4.23-1.7496-4.23-5.25 0-3.414 1.41-5.1228 4.23-5.1228s4.23 1.7076 4.23 5.1228c0 3.5004-1.41 5.25-4.229 5.25zm13.872-13.563h3.894v3.351h-3.432v7.707c0 1.5642.676 2.346 2.028 2.346h1.404v3.3516h-3.447c-2.809 0-4.214-1.506-4.214-4.5168v-14.952h3.129l.638 2.712zm-101.6052-3.4668.012 12.519c0-.441-.312-.447-.312-.447s-.8682.0072-.528 1.041c.3396 1.035-.5544 2.76-2.2128 2.7522-1.4628-.0072-4.0002-3.5922-4.0002-3.5922l-2.7078-14.2662h7.7538c.5288.00015894 1.0359.210251 1.4099.58411.3739.373858.5842.8809.5845 1.40969zm-24.08279774 9.594-.006-9.5922c-.00039435-.26185.05083924-.5212.15076974-.76323.099931-.242024.246598-.461974.431612-.647266.185013-.185293.404743-.332291.646616-.432586.24188-.1002945.50116-.1519183.763-.151918h8.922l2.538 9.93s-3.66-5.5962-9.1056-3.3864c-2.49 1.0116-3.797998 2.9388-4.34039774 5.0448zm14.08199774 6.369c.0624 3.2052-1.104 5.286-3.4476 5.3496-2.6862.0738-4.7838-2.2842-6.2196-5.3496-.33984-.73-.63929-1.4781-.897-2.241-1.3848-4.0722-.7584-7.7892 2.9658-8.136 3.7248-.348 7.104 4.4856 7.104 4.4856s.4032 3.651.486 5.5872c.0042.102.0072.204.0084.3042zm-9.168 6.0438h-2.9112c-.5288-.0003-1.035869-.2104-1.409901-.5842-.374032-.3739-.5844611-.8808-.5850967-1.4096l-.0036-5.2182c.0977997.4116.2141997.804.3467997 1.1682.084.231.1752.45.2718.6564.838798 1.8 2.027998 3.888 4.291198 5.388zm18.912-4.692c.252-.2772.27-.546.27-.8052v3.504c.0002.2617-.0512.5209-.1513.7627-.1.2418-.2467.4615-.4317.6466s-.4047.332-.6464.4322c-.2418.1001-.5009.1517-.7626.1517h-9.0504c.7572-.402 1.362-.8676 1.7178-1.314.75-.9444 1.938-2.3736 2.1618-4.7298.03-.3156.042-.648.0348-.999 0 0 .306.441.8064.999 1.2492 1.392 4.0776 3.5142 6.0498 1.3518zm111.612-19.119v2.3712h-.274v-1.914l-.843 1.914h-.246l-.855-1.914v1.914h-.271v-2.3718h.387l.874 1.9764.852-1.977h.374zm-4.601 0h1.8v.2502h-.746v2.121h-.306v-2.1222h-.748v-.2484z" fill="#1f304c"/></g></svg>

<svg width="136" height="24" viewBox="0 0 136 24" fill="none" xmlns="http://www.w3.org/2000/svg">
<g clip-path="url(#clip0)">
<path d="M40.4058 2.3856H30.5118V22.2156H40.4058C47.5338 22.2156 51.0978 19.9992 51.0978 11.9778C51.0978 4.7856 47.5338 2.3856 40.4058 2.3856ZM39.768 18.5448H34.7412V6.0558H39.768C44.502 6.0558 46.869 7.2318 46.869 11.9778C46.869 17.5518 44.502 18.5448 39.768 18.5448ZM59.397 5.4588C57.567 5.4588 55.7478 5.7258 53.9394 6.258V9.609C55.7101 9.08252 57.5473 8.81377 59.3946 8.811C62.2986 8.811 63.7506 9.561 63.7506 11.061V12.1626C62.6124 11.9526 61.3146 11.8446 59.8566 11.8446C55.0062 11.8446 52.5804 13.5642 52.5804 16.9986C52.5804 20.4786 54.8412 22.2186 59.3628 22.2186C61.0128 22.2186 62.565 21.8256 64.0224 21.0366L65.8416 22.2186H67.9788V10.98C67.9788 7.3002 65.1168 5.46 59.3928 5.46L59.397 5.4588ZM63.753 17.5548C62.5512 18.4278 61.089 18.864 59.3652 18.864C57.663 18.864 56.8122 18.2256 56.8122 16.9488C56.8122 15.672 57.828 15.0348 59.8602 15.0348C61.392 15.0348 62.6898 15.141 63.7542 15.3528V17.5548H63.753ZM74.4318 5.4588H78.3246V8.811H74.8962V16.518C74.8962 18.0822 75.5724 18.864 76.923 18.864H78.327V22.2156H74.88C72.072 22.2156 70.668 20.7096 70.668 17.6988V2.7468H73.794L74.4324 5.4588H74.4318ZM86.2254 5.4588C84.3954 5.4588 82.5738 5.7258 80.7654 6.258V9.609C82.5368 9.08238 84.3749 8.81362 86.223 8.811C89.127 8.811 90.579 9.561 90.579 11.061V12.1626C89.4402 11.9526 88.143 11.8446 86.685 11.8446C81.8334 11.8446 79.407 13.5642 79.407 16.9986C79.407 20.4786 81.669 22.2186 86.1906 22.2186C87.8186 22.2241 89.4216 21.8174 90.8502 21.0366L92.6682 22.2186H94.8066V10.98C94.8066 7.3002 91.9446 5.46 86.2218 5.46L86.2254 5.4588ZM90.5814 17.5548C89.3772 18.4278 87.9138 18.864 86.1912 18.864C84.4884 18.864 83.6376 18.2256 83.6376 16.9488C83.6376 15.672 84.6528 15.0348 86.6856 15.0348C88.2174 15.0348 89.5146 15.141 90.5796 15.3528V17.5548H90.5814ZM97.4898 2.712H101.72V22.3068H97.4898V2.712ZM111.822 5.2992C106.184 5.2992 103.364 8.1462 103.364 13.8372C103.386 19.518 106.205 22.3584 111.823 22.3584C117.461 22.3584 120.281 19.518 120.281 13.8366C120.281 8.1486 117.461 5.3016 111.823 5.3016L111.822 5.2992ZM111.822 19.023C109.002 19.023 107.592 17.2734 107.592 13.773C107.592 10.359 109.002 8.6502 111.822 8.6502C114.642 8.6502 116.052 10.3578 116.052 13.773C116.052 17.2734 114.642 19.023 111.823 19.023H111.822ZM125.694 5.46H129.588V8.811H126.156V16.518C126.156 18.0822 126.832 18.864 128.184 18.864H129.588V22.2156H126.141C123.332 22.2156 121.927 20.7096 121.927 17.6988V2.7468H125.056L125.694 5.4588V5.46ZM24.0888 1.9932L24.1008 14.5122C24.1008 14.0712 23.7888 14.0652 23.7888 14.0652C23.7888 14.0652 22.9206 14.0724 23.2608 15.1062C23.6004 16.1412 22.7064 17.8662 21.048 17.8584C19.5852 17.8512 17.0478 14.2662 17.0478 14.2662L14.34 0H22.0938C22.6226 0.00015894 23.1297 0.210251 23.5037 0.58411C23.8776 0.957968 24.0879 1.46501 24.0882 1.9938L24.0888 1.9932ZM0.00600226 11.5872L2.25924e-06 1.995C-0.000392087 1.73315 0.0508415 1.4738 0.150772 1.23177C0.250703 0.989746 0.39737 0.769796 0.582384 0.584504C0.767397 0.399211 0.987127 0.252213 1.229 0.151918C1.47088 0.0516235 1.73016 -2.96946e-07 1.992 0L10.914 0L13.452 9.93C13.452 9.93 9.792 4.3338 4.3464 6.5436C1.8564 7.5552 0.548402 9.4824 0.00600226 11.5884V11.5872ZM14.088 17.9562C14.1504 21.1614 12.984 23.2422 10.6404 23.3058C7.9542 23.3796 5.8566 21.0216 4.4208 17.9562C4.08096 17.2262 3.78151 16.4781 3.5238 15.7152C2.139 11.643 2.7654 7.926 6.4896 7.5792C10.2144 7.2312 13.5936 12.0648 13.5936 12.0648C13.5936 12.0648 13.9968 15.7158 14.0796 17.652C14.0838 17.754 14.0868 17.856 14.088 17.9562ZM4.92 24H2.0088C1.48 23.9997 0.972931 23.7896 0.598899 23.4158C0.224867 23.0419 0.0144379 22.535 0.0138023 22.0062L0.0102023 16.788C0.108002 17.1996 0.224402 17.592 0.357002 17.9562C0.441002 18.1872 0.532202 18.4062 0.628802 18.6126C1.4676 20.4126 2.6568 22.5006 4.92 24.0006V24ZM23.832 19.308C24.084 19.0308 24.102 18.762 24.102 18.5028V22.0068C24.1022 22.2685 24.0508 22.5277 23.9507 22.7695C23.8507 23.0113 23.704 23.231 23.519 23.4161C23.334 23.6012 23.1143 23.7481 22.8726 23.8483C22.6308 23.9484 22.3717 24 22.11 24H13.0596C13.8168 23.598 14.4216 23.1324 14.7774 22.686C15.5274 21.7416 16.7154 20.3124 16.9392 17.9562C16.9692 17.6406 16.9812 17.3082 16.974 16.9572C16.974 16.9572 17.28 17.3982 17.7804 17.9562C19.0296 19.3482 21.858 21.4704 23.8302 19.308H23.832ZM135.444 0.189V2.5602H135.17V0.6462L134.327 2.5602H134.081L133.226 0.6462V2.5602H132.955V0.1884H133.342L134.216 2.1648L135.068 0.1878H135.442L135.444 0.189ZM130.843 0.189H132.643V0.4392H131.897V2.5602H131.591V0.438H130.843V0.1896V0.189Z" fill="#1F304C"/>
</g>
<defs>
<clipPath id="clip0">
<rect width="135.6" height="24" fill="white"/>
</clipPath>
</defs>
</svg>
